packages/symbols/svgs/solid/trophy-solid.svg

<svg width="16" height="16" viewBox="0 0 16 16" fill="none" xmlns="http://www.w3.org/2000/svg">
<path d="M0 0V4C0 6.06548 1.60369 8 4.14142 8C4.48578 9.32947 5.49066 10.3786 6.79016 10.7935C6.612 11.7306 6.28198 12.9044 5.66724 14H4V16H12V14H10.3328C9.71802 12.9044 9.388 11.7306 9.20984 10.7935C10.5093 10.3786 11.5142 9.32947 11.8586 8C14.3879 8 16 6.07178 16 4V0H0ZM2 4V2H4V6C2.89746 6 2 5.10303 2 4ZM14 4C14 5.10303 13.1025 6 12 6V2H14V4Z" fill="black"/>
</svg>

<svg width="16" height="16" viewBox="0 0 16 16" xmlns="http://www.w3.org/2000/svg"><path d="M0 0v4c0 2.065 1.604 4 4.141 4a3.983 3.983 0 0 0 2.65 2.793c-.179.938-.509 2.111-1.124 3.207H4v2h8v-2h-1.667c-.615-1.096-.945-2.27-1.123-3.207A3.984 3.984 0 0 0 11.859 8C14.388 8 16 6.072 16 4V0H0Zm2 4V2h2v4c-1.103 0-2-.897-2-2Zm12 0c0 1.103-.898 2-2 2V2h2v2Z"/></svg>
